X: 280
T: Benim Gönlüm Bir Kelebek
C: Nazmi Atlığ
O: Turkey
F: http://compmusic.upf.edu/node/140
N: nihavent--sarki--semai--benim_gonlum--nazmi_atlig
N: makam= nihavent
N: form= sarki
N: usul= semai = 3/4
M: 3/4
L: 1/16
K: C _B _e  
Q: 1/4=156
%%MIDI tuningsystem comma53
G2A2 B2c2 d2e2  | d4 c4 B4  | c2d2 B2c2 A2B2  | G12  | \
w:  ARANAĞME  |   |   |   | 
G2A2 B2c2 d2e2  | 
w:   | 
d4 g4 a4  | a2b2 a2g2 ^f2e2  | d12  | d4 g4 a4  | \
w:   |   |   |   | 
b4 a4 g4  | f2g2 e2f2 d2e2  | 
w:   |   | 
c12  | B4 A4 G4  | A12  | A4 G4 ^F4  | G12  | \
w:   |   |   |   |   | 
d4 g4 a4  | b4 a4 g4  | f2g2 e2f2 d2e2  | 
w:   |   |   | 
c12  | B4 A4 G4  | A12  | A4 G4 ^F4  | G12  | \
w:   |   |   |   |   | 
d4 e4 d4  | g12  | d6e2 d4  | ^c12  | d4 e4 d4  | a12  | 
w:  Be nim  gön  |  lüm   |  bir  ke le  |  bek    |  Do la şı  |  yor   | 
^f4 g6e2  | d12  | d4 e4 d4  | g12  | d6e2 d4  | ^c12  | \
w:  çi çek  çi  |  çek    |  Be nim  gön  |  lüm   |  bir  ke le  |  bek    | 
d4 e4 d4  | a12  | ^f4 g6e2  | d12  | d4 _7/8e4 =e4  | 
w:  Do la şı  |  yor   |  çi çek  çi  |  çek    |  Tü ke ne  | 
f12  | g4 e4 d4  | c12  | B4 A4 G4  | A12  | A4 G4 ^F4  | G12  | \
w:  cek   |  öm rüm  böy  |  le    |  Çır pı na  |  rak   |  tit re ye  |  rek    | 
d4 _7/8e4 =e4  | f12  | g4 e4 d4  | c12  | 
w:  Tü ke ne  |  cek   |  öm rüm  böy  |  le    | 
B4 A4 G4  | A12  | A4 G4 ^F4  | G12  | g4 g4 g4  | g12  | \
w:  Çır pı na  |  rak   |  tit re ye  |  rek    |  Ne  şe ref  |  li   | 
^f6g2 a4  | b12  | d'4 c'2b2 a2g2  | 
w:  bir  a dı   |  var    |  Ne  bü *  yük   | 
^f12  | e4 d4 ^c4  | d12  | g4 g4 g4  | g12  | \
w:  bir   |  mak sa dı   |  var    |  Ne  şe ref  |  li   | 
^f6g2 a4  | b12  | d'4 c'2b2 a2g2  | ^f12  | \
w:  bir  a dı   |  var    |  Ne  bü *  yük   |  bir   | 
e4 d4 ^c4  | 
w:  mak sa dı   | 
d12  | d4 _7/8e4 =e4  | f12  | g4 e4 d4  | c12  | \
w:  var    |  Her  gün  bi  |  raz   |  ze de le  |  nen    | 
B4 A4 G4  | A12  | A4 G4 ^F4  | G12  | d4 _7/8e4 =e4  | f12  | 
w:  İ ki  i  |  pek   |  ka na dı   |  var    |  Her  gün  bi  |  raz   | 
g4 e4 d4  | c12  | B4 A4 G4  | A12  | A4 G4 ^F4  | G12  | \
w:  ze de le  |  nen    |  İ ki  i  |  pek   |  ka na dı   |  var    | 
G2A2 B2c2 d2e2  | d4 c4 B4  | 
w:  ARANAĞME  |   | 
c2d2 B2c2 A2B2  | G12  | G2A2 B2c2 d2e2  | \
w:   |   |   | 
d4 g4 a4  | a2b2 a2g2 ^f2e2  | 
w:   |   | 
d12  | d4 g4 a4  | b4 a4 g4  | f2g2 e2f2 d2e2  | c12  | \
w:   |   |   |   |   | 
B4 A4 G4  | A12  | A4 G4 ^F4  | 
w:   |   |   | 
G12  | d4 g4 a4  | b4 a4 g4  | f2g2 e2f2 d2e2  | c12  | \
w:   |   |   |   |   | 
B4 A4 G4  | A12  | A4 G4 ^F4  | 
w:   |   |   | 
G12  | d4 e4 d4  | g12  | d6e2 d4  | ^c12  | d4 e4 d4  | a12  | \
w:   |  Be nim  gön  |  lüm   |  bir  ke le  |  bek    |  Do la şı  |  yor   | 
^f4 g6e2  | d12  | d4 e4 d4  | g12  | 
w:  çi çek  çi  |  çek    |  Be nim  gön  |  lüm   | 
d6e2 d4  | ^c12  | d4 e4 d4  | a12  | ^f4 g6e2  | d12  | \
w:  bir  ke le  |  bek    |  Do la şı  |  yor   |  çi çek  çi  |  çek    | 
d4 _7/8e4 =e4  | f12  | g4 e4 d4  | c12  | \
w:  Tü ke ne  |  cek   |  öm rüm  böy  |  le    | 
B4 A4 G4  | 
w:  Çır pı na  | 
A12  | A4 G4 ^F4  | G12  | d4 _7/8e4 =e4  | f12  | \
w:  rak   |  tit re ye  |  rek    |  Tü ke ne  |  cek   | 
g4 e4 d4  | c12  | B4 A4 G4  | A12  | A4 G4 ^F4  | G12  | 
w:  öm rüm  böy  |  le    |  Çır pı na  |  rak   |  tit re ye  |  rek    | 
g4 g4 g4  | g12  | ^f6g2 a4  | b12  | d'4 c'2b2 a2g2  | ^f12  | \
w:  Ne  şe ref  |  li   |  bir  a dı   |  var    |  Ne  bü *  yük   |  bir   | 
e4 d4 ^c4  | d12  | g4 g4 g4  | 
w:  mak sa dı   |  var    |  Ne  şe ref  | 
g12  | ^f6g2 a4  | b12  | d'4 c'2b2 a2g2  | ^f12  | \
w:  li   |  bir  a dı   |  var    |  Ne  bü *  yük   |  bir   | 
e4 d4 ^c4  | d12  | d4 _7/8e4 =e4  | f12  | \
w:  mak sa dı   |  var    |  Her  gün  bi  |  raz   | 
g4 e4 d4  | 
w:  ze de le  | 
c12  | B4 A4 G4  | A12  | A4 G4 ^F4  | G12  | \
w:  nen    |  İ ki  i  |  pek   |  ka na dı   |  var    | 
d4 _7/8e4 =e4  | f12  | g4 e4 d4  | c12  | \
w:  Her  gün  bi  |  raz   |  ze de le  |  nen    | 
B4 A4 G4  | A12  | 
w:  İ ki  i  |  pek   | 
A4 G4 ^F4  | G12  | |


